public/images/divisions/data_science/real_time_data_analysis/icon_0.svg

<svg width="50" height="50" viewBox="0 0 50 50" fill="none" xmlns="http://www.w3.org/2000/svg">
<rect width="50" height="50" rx="8" fill="url(#paint0_linear_11_20184)"/>
<path d="M25 25L36.25 13.75" stroke="white" stroke-width="2" stroke-linecap="round" stroke-linejoin="round"/>
<path d="M32.9567 17.0439C30.9622 15.0434 28.2894 13.8646 25.4673 13.7408C22.6452 13.617 19.8795 14.5572 17.7175 16.3753C15.5555 18.1933 14.1548 20.7568 13.7927 23.5584C13.4306 26.3599 14.1335 29.1952 15.7622 31.5033C17.3909 33.8113 19.8267 35.4238 22.5875 36.0216C25.3484 36.6193 28.233 36.1588 30.6706 34.7312C33.1081 33.3036 34.9208 31.0129 35.75 28.3126C36.5792 25.6122 36.3644 22.6989 35.1481 20.1493" stroke="white" stroke-width="2" stroke-linecap="round" stroke-linejoin="round"/>
<path d="M28.9729 21.0282C28.0439 20.1018 26.8197 19.53 25.513 19.4123C24.2062 19.2946 22.8996 19.6383 21.8199 20.3838C20.7403 21.1292 19.9558 22.2293 19.6029 23.493C19.25 24.7566 19.3508 26.1039 19.888 27.301C20.4251 28.498 21.3645 29.469 22.5431 30.0455C23.7217 30.6219 25.065 30.7672 26.3396 30.4563C27.6143 30.1453 28.7397 29.3977 29.5205 28.3433C30.3012 27.2889 30.688 25.9943 30.6135 24.6844" stroke="white" stroke-width="2" stroke-linecap="round" stroke-linejoin="round"/>
<defs>
<linearGradient id="paint0_linear_11_20184" x1="0" y1="25.6757" x2="50" y2="25.6757" gradientUnits="userSpaceOnUse">
<stop stop-color="#00469F"/>
<stop offset="1" stop-color="#1E79D6"/>
</linearGradient>
</defs>
</svg>

<svg xmlns="http://www.w3.org/2000/svg" width="50" height="50" fill="none" xmlns:v="https://vecta.io/nano"><rect width="50" height="50" rx="8" fill="url(#A)"/><g stroke="#fff" stroke-width="2" stroke-linecap="round" stroke-linejoin="round"><path d="M25 25L36.25 13.75"/><path d="M32.957 17.044c-1.994-2.001-4.667-3.179-7.489-3.303s-5.588.816-7.75 2.634-3.563 4.381-3.925 7.183.341 5.637 1.97 7.945 4.064 3.921 6.825 4.518 5.646.137 8.083-1.29 4.25-3.718 5.079-6.419.614-5.614-.602-8.163"/><path d="M28.973 21.028c-.929-.926-2.153-1.498-3.46-1.616s-2.613.226-3.693.972-1.864 1.845-2.217 3.109-.252 2.611.285 3.808 1.476 2.168 2.655 2.745 2.522.722 3.797.411 2.4-1.059 3.181-2.113 1.168-2.349 1.093-3.659"/></g><defs><linearGradient id="A" x1="0" y1="25.676" x2="50" y2="25.676" gradientUnits="userSpaceOnUse"><stop stop-color="#00469f"/><stop offset="1" stop-color="#1e79d6"/></linearGradient></defs></svg>
